svgs/sharp-regular/arrow-down-to-square.svg

<svg xmlns="http://www.w3.org/2000/svg" viewBox="0 0 512 512"><!--! Font Awesome Pro 6.6.0 by @fontawesome - https://fontawesome.com License - https://fontawesome.com/license (Commercial License) Copyright 2024 Fonticons, Inc. --><path d="M272.7 353.2l112-108.8 17.2-16.7-33.4-34.4L351.3 210 280 279.2 280 24l0-24L232 0l0 24 0 255.2L160.7 210l-17.2-16.7-33.4 34.4 17.2 16.7 112 108.8L256 369.5l16.7-16.2zM24 32L0 32 0 56 0 488l0 24 24 0 464 0 24 0 0-24 0-432 0-24-24 0-96 0-24 0 0 48 24 0 72 0 0 384L48 464 48 80l72 0 24 0 0-48-24 0L24 32z"/></svg>

<svg xmlns="http://www.w3.org/2000/svg" viewBox="0 0 512 512"><!--! Font Awesome Pro 6.4.2 by @fontawesome - https://fontawesome.com License - https://fontawesome.com/license (Commercial License) Copyright 2023 Fonticons, Inc. --><path d="M272.7 353.2l112-108.8 17.2-16.7-33.4-34.4L351.3 210 280 279.2V19.2v-24H232v24 260L160.7 210l-17.2-16.7-33.4 34.4 17.2 16.7 112 108.8L256 369.5l16.7-16.2zM24 32H0V56 488v24H24 488h24V488 56 32H488 392 368V80h24 72V464H48V80h72 24V32H120 24z"/></svg>
